X: 4
T: Chicken That Made The Soup, The
Z: ceolachan
S: https://thesession.org/tunes/2062#setting15461
R: jig
M: 6/8
L: 1/8
K: Dmaj
gdB d2 e | ded B2 A | GDG GBd | g3 b2 a |gdB d2 e | ded B2 A | GDG B2 A |[1 G3 G2 :|[2 G3 GBd |||: e/f/ed Bdd | gfg Bdd | e/f/ed Bcd |[1 g3 g2 d | e/f/ed Bdd | gfg BdB | GDG B2 A | G3 GBd :|[2 g3 b2 a | gbg faf | ege edB | dcd def | gfg b2 |]
